**kern	**silbe	**harmony	**chordsym	**phrase	**timestamp	**leadinstrument
*ICvox	*	*M7/4	*M7/4	*	*	*
*	*	*b:	*b:	*b:	*b:	*b:
=1	=1	=1	=1	=1	=1	=1
*b:	*	*	*	*	*	*
*M7/4	*	*	*	*	*	*
*clefC3	*	*	*	*	*	*
1..r	.	1r;	r	.	0	r
.	.	1r;	r	.	0.065	r
=2	=2	=2	=2	=2	=2	=2
*M9/4	*	*	*	*	*	*
4%9r	.	.	.	.	.	.
=1	=1	=1	=1	=1	=1	=1
*	*	*>A_intro	*>A_intro	*>A_intro	*>A_intro	*>A_intro
.	.	1Bm	B:min (B D F#)	newline	12.718	r
.	.	2.Bm	B:min (B D F#)	.	.	r
=2	=2	=2	=2	=2	=2	=2
.	.	1Bm	B:min (B D F#)	.	.	r
=3	=3	=3	=3	=3	=3	=3
*M7/4	*	*	*	*	*	*
1..r	.	.	.	.	.	.
.	.	2.Bm	B:min (B D F#)	.	.	r
=3	=3	=3	=3	=3	=3	=3
.	.	1Bm	B:min (B D F#)	.	.	r
=4	=4	=4	=4	=4	=4	=4
1..r	.	.	.	.	.	.
.	.	2.Bm	B:min (B D F#)	.	.	r
=4	=4	=4	=4	=4	=4	=4
.	.	1Bm	B:min (B D F#)	.	.	r
=5	=5	=5	=5	=5	=5	=5
1..r	.	.	.	.	.	.
.	.	2.Bm	B:min (B D F#)	.	.	r
=5	=5	=5	=5	=5	=5	=5
.	.	1Bm	B:min (B D F#)	newline	26.54	r
=6	=6	=6	=6	=6	=6	=6
1..r	.	.	.	.	.	.
.	.	2.Bm	B:min (B D F#)	.	.	r
=6	=6	=6	=6	=6	=6	=6
.	.	1Bm	B:min (B D F#)	.	.	r
=7	=7	=7	=7	=7	=7	=7
8f#	Mo-	.	.	.	.	.
8f#	-ney,	.	.	.	.	.
1r	.	.	.	.	.	.
.	.	2.Bm	B:min (B D F#)	.	.	r
8r	.	.	.	.	.	.
8F#	a	.	.	.	.	.
=7	=7	=7	=7	=7	=7	=7
8d	get-	1Bm	B:min (B D F#)	.	.	r
8d	-a-	.	.	.	.	.
=8	=8	=8	=8	=8	=8	=8
4A	-way.	.	.	.	.	.
1r	.	.	.	.	.	.
.	.	2.Bm	B:min (B D F#)	.	.	r
8r	.	.	.	.	.	.
8F#	Go	.	.	.	.	.
=8	=8	=8	=8	=8	=8	=8
8d	get	1Bm	B:min (B D F#)	.	.	r
8d	a	.	.	.	.	.
=9	=9	=9	=9	=9	=9	=9
4B	good	.	.	.	.	.
4d	job	.	.	.	.	.
4B	with	.	.	.	.	.
4F#	more	2.Bm	B:min (B D F#)	.	.	r
8A	pay	.	.	.	.	.
8A	and	.	.	.	.	.
4B	you're	.	.	.	.	.
=9	=9	=9	=9	=9	=9	=9
*	*	*>B_verse	*>B_verse	*>B_verse	*>B_verse	*>B_verse
4e	o	1Bm	B:min (B D F#)	newline	40.31	r
=10	=10	=10	=10	=10	=10	=10
12d	_	.	.	.	.	.
6B	_	.	.	.	.	.
4A	kay.	.	.	.	.	.
1r	.	.	.	.	.	.
.	.	2.Bm	B:min (B D F#)	.	.	r
=10	=10	=10	=10	=10	=10	=10
8r	.	1Bm	B:min (B D F#)	.	.	r
[8f#	Mo-	.	.	.	.	.
=11	=11	=11	=11	=11	=11	=11
16f#]	_	.	.	.	.	.
[8.e	-ney,	.	.	.	.	.
8e]	_	.	.	.	.	.
16d	_	.	.	.	.	.
16B	_	.	.	.	.	.
1r	.	.	.	.	.	.
.	.	2.Bm	B:min (B D F#)	.	.	r
=11	=11	=11	=11	=11	=11	=11
8d	it's	1Bm	B:min (B D F#)	.	.	r
8d	a	.	.	.	.	.
=12	=12	=12	=12	=12	=12	=12
4.A	gas.	.	.	.	.	.
8r	.	.	.	.	.	.
1r	.	.	.	.	.	.
.	.	2.Bm	B:min (B D F#)	.	.	r
=12	=12	=12	=12	=12	=12	=12
4d	Grab	1Bm	B:min (B D F#)	.	.	r
=13	=13	=13	=13	=13	=13	=13
4B	that	.	.	.	.	.
4d	cash	.	.	.	.	.
4B	with	.	.	.	.	.
4F#	both	2.Bm	B:min (B D F#)	.	.	r
4A	hands	.	.	.	.	.
4B	and	.	.	.	.	.
=13	=13	=13	=13	=13	=13	=13
[4e	make	1Bm	B:min (B D F#)	newline	54.114	r
=14	=14	=14	=14	=14	=14	=14
16e]	_	.	.	.	.	.
16d	_	.	.	.	.	.
[8A	a	.	.	.	.	.
4A]	stash.	.	.	.	.	.
1r	.	.	.	.	.	.
.	.	2.Bm	B:min (B D F#)	.	.	r
=14	=14	=14	=14	=14	=14	=14
8r	.	1Bm	B:min (B D F#)	.	.	r
8c#	A	.	.	.	.	.
=15	=15	=15	=15	=15	=15	=15
4f#	New	.	.	.	.	.
4f#	car,	.	.	.	.	.
8f#	ca-	.	.	.	.	.
8c#	-vi-	.	.	.	.	.
4F#	-ar,	2.Bm	B:min (B D F#)	.	.	r
4A	four-	.	.	.	.	.
4c#	-star	.	.	.	.	.
=15	=15	=15	=15	=15	=15	=15
4f#	day-	1Bm	B:min (B D F#)	.	.	r
=16	=16	=16	=16	=16	=16	=16
4f	-dream,	.	.	.	.	.
8e	think	.	.	.	.	.
8B	I'll	.	.	.	.	.
4E	buy	.	.	.	.	.
4G	me	2.Bm	B:min (B D F#)	.	.	r
4A	a	.	.	.	.	.
4B	foot-	.	.	.	.	.
=16	=16	=16	=16	=16	=16	=16
[4e	-ball	1Bm	B:min (B D F#)	.	.	r
=17	=17	=17	=17	=17	=17	=17
16e]	_	.	.	.	.	.
16d	_	.	.	.	.	.
[8B	_	.	.	.	.	.
16B]	_	.	.	.	.	.
8.A	team.	.	.	.	.	.
4r	.	.	.	.	.	.
1r	.	2.Bm	B:min (B D F#)	.	.	r
=17	=17	=17	=17	=17	=17	=17
.	.	1F#m	F#:min (F# A C#)	newline	67.946	r
=18	=18	=18	=18	=18	=18	=18
1..r	.	.	.	.	.	.
.	.	2.F#m	F#:min (F# A C#)	.	.	r
=18	=18	=18	=18	=18	=18	=18
.	.	4FM	F:1 (F)	.	.	r
=19	=19	=19	=19	=19	=19	=19
8f#	Mo-	4Em	E:min (E G B)	.	.	r
8f#	-ney,	.	.	.	.	.
1r	.	4Em	E:min (E G B)	.	.	r
.	.	4Em	E:min (E G B)	.	.	r
.	.	4Em	E:min (E G B)	.	.	r
.	.	4Em	E:min (E G B)	.	.	r
8r	.	4Em	E:min (E G B)	.	.	r
8F#	we'll	.	.	.	.	.
=19	=19	=19	=19	=19	=19	=19
4d	get	1Bm	B:min (B D F#)	.	.	r
=20	=20	=20	=20	=20	=20	=20
4A	back.	.	.	.	.	.
1r	.	.	.	.	.	.
.	.	2.Bm	B:min (B D F#)	.	.	r
4r	.	.	.	.	.	.
=20	=20	=20	=20	=20	=20	=20
4d	I'm	1Bm	B:min (B D F#)	.	.	r
=21	=21	=21	=21	=21	=21	=21
4B	all	.	.	.	.	.
4d	right,	.	.	.	.	.
4B	Jack,	.	.	.	.	.
8F#	keep	2.Bm	B:min (B D F#)	.	.	r
8F#	your	.	.	.	.	.
4A	hands	.	.	.	.	.
4B	off	.	.	.	.	.
=21	=21	=21	=21	=21	=21	=21
*	*	*>B_verse	*>B_verse	*>B_verse	*>B_verse	*>B_verse
4e	my	1Bm	B:min (B D F#)	newline	81.757	r
=22	=22	=22	=22	=22	=22	=22
12d	_	.	.	.	.	.
6B	_	.	.	.	.	.
4A	stack.	.	.	.	.	.
1r	.	.	.	.	.	.
.	.	2.Bm	B:min (B D F#)	.	.	r
=22	=22	=22	=22	=22	=22	=22
4r	.	1Bm	B:min (B D F#)	.	.	r
=23	=23	=23	=23	=23	=23	=23
8f#	Mo-	.	.	.	.	.
[8f#	-ney,	.	.	.	.	.
12f#]	_	.	.	.	.	.
6f#	_	.	.	.	.	.
4f#	_	.	.	.	.	.
2r	.	2.Bm	B:min (B D F#)	.	.	r
4r	.	.	.	.	.	.
=23	=23	=23	=23	=23	=23	=23
8d	it's	1Bm	B:min (B D F#)	.	.	r
8d	a	.	.	.	.	.
=24	=24	=24	=24	=24	=24	=24
4A	hit.	.	.	.	.	.
1r	.	.	.	.	.	.
.	.	2.Bm	B:min (B D F#)	.	.	r
8r	.	.	.	.	.	.
8A	A'	.	.	.	.	.
=24	=24	=24	=24	=24	=24	=24
4d	don't	1Bm	B:min (B D F#)	.	.	r
=25	=25	=25	=25	=25	=25	=25
4B	give	.	.	.	.	.
4d	me	.	.	.	.	.
4B	that	.	.	.	.	.
4F#	do-	2.Bm	B:min (B D F#)	.	.	r
8A	-goo-	.	.	.	.	.
8A	-dy-	.	.	.	.	.
4B	-good	.	.	.	.	.
=25	=25	=25	=25	=25	=25	=25
[4e	bull-	1Bm	B:min (B D F#)	newline	95.486	r
=26	=26	=26	=26	=26	=26	=26
16e]	_	.	.	.	.	.
8d	_	.	.	.	.	.
[16A	-shit.	.	.	.	.	.
4A]	_	.	.	.	.	.
4r	.	.	.	.	.	.
4r	.	2.Bm	B:min (B D F#)	.	.	r
4A	I'm	.	.	.	.	.
4B	in	.	.	.	.	.
=26	=26	=26	=26	=26	=26	=26
4d	the	1Bm	B:min (B D F#)	.	.	r
=27	=27	=27	=27	=27	=27	=27
*M4/4	*	*	*	*	*	*
4f#	hi-	.	.	.	.	.
4f#	-fi-	.	.	.	.	.
8f#	-de-	.	.	.	.	.
8c#	-li-	.	.	.	.	.
4F#	-ty	2.Bm	B:min (B D F#)	.	.	r
=28	=28	=28	=28	=28	=28	=28
4A	first	.	.	.	.	.
4c#	class	.	.	.	.	.
=27	=27	=27	=27	=27	=27	=27
8f#	tra-	1Bm	B:min (B D F#)	.	.	r
8f#	-vel-	.	.	.	.	.
4f	-ing	.	.	.	.	.
=29	=29	=29	=29	=29	=29	=29
*M6/4	*	*	*	*	*	*
8e	set	.	.	.	.	.
8B	and	.	.	.	.	.
4E	I	.	.	.	.	.
4G	think	2.Bm	B:min (B D F#)	.	.	r
4A	I	.	.	.	.	.
8B	need	.	.	.	.	.
8B	a	.	.	.	.	.
=28	=28	=28	=28	=28	=28	=28
[4e	Lear	1Bm	B:min (B D F#)	.	.	r
=30	=30	=30	=30	=30	=30	=30
*M7/4	*	*	*	*	*	*
16e]	_	.	.	.	.	.
16d	_	.	.	.	.	.
[8B	_	.	.	.	.	.
16B]	_	.	.	.	.	.
8.A	jet.	.	.	.	.	.
1r	.	.	.	.	.	.
.	.	2.Bm	B:min (B D F#)	.	.	r
=29	=29	=29	=29	=29	=29	=29
4r	.	1F#m	F#:min (F# A C#)	newline	109.057	r
=31	=31	=31	=31	=31	=31	=31
1..r	.	.	.	.	.	.
.	.	2.F#m	F#:min (F# A C#)	.	.	r
=30	=30	=30	=30	=30	=30	=30
.	.	4FM	F:1 (F)	.	.	r
=32	=32	=32	=32	=32	=32	=32
1..r	.	4Em	E:min (E G B)	.	.	r
.	.	4Em	E:min (E G B)	.	.	r
.	.	4Em	E:min (E G B)	.	.	r
.	.	4Em	E:min (E G B)	.	.	r
.	.	4Em	E:min (E G B)	.	.	r
.	.	4Em	E:min (E G B)	.	.	r
=31	=31	=31	=31	=31	=31	=31
.	.	1Bm	B:min (B D F#)	.	.	r
=33	=33	=33	=33	=33	=33	=33
1..r	.	.	.	.	.	.
.	.	2.Bm	B:min (B D F#)	.	.	r
=32	=32	=32	=32	=32	=32	=32
.	.	1Bm	B:min (B D F#)	.	.	r
=34	=34	=34	=34	=34	=34	=34
1..r	.	.	.	.	.	.
.	.	2.Bm	B:min (B D F#)	.	.	r
=33	=33	=33	=33	=33	=33	=33
*	*	*>C_solo	*>C_solo	*>C_solo	*>C_solo	*>C_solo
.	.	1Bm	B:min (B D F#)	newline	122.837	saxophone
=35	=35	=35	=35	=35	=35	=35
*M4/4	*	*	*	*	*	*
1r	.	.	.	.	.	.
.	.	2.Bm	B:min (B D F#)	.	.	saxophone
=36	=36	=36	=36	=36	=36	=36
1r	.	.	.	.	.	.
=34	=34	=34	=34	=34	=34	=34
.	.	1Bm	B:min (B D F#)	.	.	saxophone
=37	=37	=37	=37	=37	=37	=37
*M7/4	*	*	*	*	*	*
1..r	.	.	.	.	.	.
.	.	2.Bm	B:min (B D F#)	.	.	saxophone
=35	=35	=35	=35	=35	=35	=35
.	.	1Bm	B:min (B D F#)	.	.	saxophone
=38	=38	=38	=38	=38	=38	=38
1..r	.	.	.	.	.	.
.	.	2.Bm	B:min (B D F#)	.	.	saxophone
=36	=36	=36	=36	=36	=36	=36
.	.	1Bm	B:min (B D F#)	.	.	saxophone
=39	=39	=39	=39	=39	=39	=39
1..r	.	.	.	.	.	.
.	.	2.Bm	B:min (B D F#)	.	.	saxophone
=37	=37	=37	=37	=37	=37	=37
.	.	1Bm	B:min (B D F#)	newline	136.196	saxophone
=40	=40	=40	=40	=40	=40	=40
1..r	.	.	.	.	.	.
.	.	2.Bm	B:min (B D F#)	.	.	saxophone
=38	=38	=38	=38	=38	=38	=38
.	.	1Bm	B:min (B D F#)	.	.	saxophone
=41	=41	=41	=41	=41	=41	=41
1..r	.	.	.	.	.	.
.	.	2.Bm	B:min (B D F#)	.	.	saxophone
=39	=39	=39	=39	=39	=39	=39
.	.	1Bm	B:min (B D F#)	.	.	saxophone
=42	=42	=42	=42	=42	=42	=42
1..r	.	.	.	.	.	.
.	.	2.Bm	B:min (B D F#)	.	.	saxophone
=40	=40	=40	=40	=40	=40	=40
.	.	1Bm	B:min (B D F#)	.	.	saxophone
=43	=43	=43	=43	=43	=43	=43
*M4/4	*	*	*	*	*	*
1r	.	.	.	.	.	.
.	.	2.Bm	B:min (B D F#)	.	.	saxophone
=44	=44	=44	=44	=44	=44	=44
1r	.	.	.	.	.	.
=41	=41	=41	=41	=41	=41	=41
.	.	1Em	E:min (E G B)	newline	149.615	saxophone
=45	=45	=45	=45	=45	=45	=45
1r	.	.	.	.	.	.
.	.	2.Em	E:min (E G B)	.	.	saxophone
=46	=46	=46	=46	=46	=46	=46
1r	.	1Em	E:min (E G B)	.	.	saxophone
=47	=47	=47	=47	=47	=47	=47
1r	.	2.Em	E:min (E G B)	.	.	saxophone
=43	=43	=43	=43	=43	=43	=43
.	.	1Em	E:min (E G B)	.	.	saxophone
=48	=48	=48	=48	=48	=48	=48
1r	.	.	.	.	.	.
.	.	2.Em	E:min (E G B)	.	.	saxophone
=49	=49	=49	=49	=49	=49	=49
1r	.	.	.	.	.	.
=44	=44	=44	=44	=44	=44	=44
.	.	1Em	E:min (E G B)	.	.	saxophone
=50	=50	=50	=50	=50	=50	=50
1r	.	.	.	.	.	.
.	.	2.Em	E:min (E G B)	.	.	saxophone
=51	=51	=51	=51	=51	=51	=51
1r	.	.	.	.	.	.
=45	=45	=45	=45	=45	=45	=45
.	.	1Bm	B:min (B D F#)	newline	163.028	saxophone
=52	=52	=52	=52	=52	=52	=52
1r	.	.	.	.	.	.
.	.	2.Bm	B:min (B D F#)	.	.	saxophone
=53	=53	=53	=53	=53	=53	=53
1r	.	1Bm	B:min (B D F#)	.	.	saxophone
=54	=54	=54	=54	=54	=54	=54
1r	.	2.Bm	B:min (B D F#)	.	.	saxophone
=47	=47	=47	=47	=47	=47	=47
.	.	1Bm	B:min (B D F#)	.	.	saxophone
=55	=55	=55	=55	=55	=55	=55
1r	.	.	.	.	.	.
.	.	2.Bm	B:min (B D F#)	.	.	saxophone
=56	=56	=56	=56	=56	=56	=56
1r	.	.	.	.	.	.
=48	=48	=48	=48	=48	=48	=48
.	.	1Bm	B:min (B D F#)	.	.	saxophone
=57	=57	=57	=57	=57	=57	=57
1r	.	.	.	.	.	.
.	.	2.Bm	B:min (B D F#)	.	.	saxophone
=58	=58	=58	=58	=58	=58	=58
1r	.	.	.	.	.	.
=49	=49	=49	=49	=49	=49	=49
.	.	1F#m	F#:min (F# A C#)	newline	176.455	saxophone
=59	=59	=59	=59	=59	=59	=59
1r	.	.	.	.	.	.
.	.	2.F#m	F#:min (F# A C#)	.	.	saxophone
=60	=60	=60	=60	=60	=60	=60
1r	.	4FM	F:1 (F)	.	.	saxophone
.	.	4Em	E:min (E G B)	.	.	saxophone
.	.	4Em	E:min (E G B)	.	.	saxophone
.	.	4Em	E:min (E G B)	.	.	saxophone
=61	=61	=61	=61	=61	=61	=61
1r	.	4Em	E:min (E G B)	.	.	saxophone
.	.	4Em	E:min (E G B)	.	.	saxophone
.	.	4Em	E:min (E G B)	.	.	saxophone
=51	=51	=51	=51	=51	=51	=51
*	*	*M4/4	*M4/4	*M4/4	*M4/4	*M4/4
.	.	1Bm	B:min (B D F#)	.	.	saxophone
=62	=62	=62	=62	=62	=62	=62
1r	.	.	.	.	.	.
=52	=52	=52	=52	=52	=52	=52
.	.	1Bm	B:min (B D F#)	.	.	saxophone
=63	=63	=63	=63	=63	=63	=63
1r	.	.	.	.	.	.
=53	=53	=53	=53	=53	=53	=53
*	*	*>C_solo	*>C_solo	*>C_solo	*>C_solo	*>C_solo
.	.	1Bm	B:min (B D F#)	newline	186.923	guitar
=64	=64	=64	=64	=64	=64	=64
1r	.	.	.	.	.	.
=54	=54	=54	=54	=54	=54	=54
.	.	1Bm	B:min (B D F#)	.	.	guitar
=65	=65	=65	=65	=65	=65	=65
*M7/4	*	*	*	*	*	*
1..r	.	.	.	.	.	.
=55	=55	=55	=55	=55	=55	=55
.	.	1Bm	B:min (B D F#)	.	.	guitar
=66	=66	=66	=66	=66	=66	=66
1..r	.	1Bm	B:min (B D F#)	.	.	guitar
=57	=57	=57	=57	=57	=57	=57
.	.	1Bm	B:min (B D F#)	newline	194.233	guitar
=67	=67	=67	=67	=67	=67	=67
8f#	Mo-	.	.	.	.	.
[8f#	-ney,	.	.	.	.	.
=58	=58	=58	=58	=58	=58	=58
12f#]	_	1Bm	B:min (B D F#)	.	.	guitar
6f#	_	.	.	.	.	.
4r	.	.	.	.	.	.
2r	.	.	.	.	.	.
=59	=59	=59	=59	=59	=59	=59
4r	.	1Bm	B:min (B D F#)	.	.	guitar
8e	it's	.	.	.	.	.
8d	a	.	.	.	.	.
=68	=68	=68	=68	=68	=68	=68
4A	crime.	.	.	.	.	.
1r	.	.	.	.	.	.
=60	=60	=60	=60	=60	=60	=60
.	.	1Bm	B:min (B D F#)	.	.	guitar
4r	.	.	.	.	.	.
=61	=61	=61	=61	=61	=61	=61
4d	Share	1Em	E:min (E G B)	newline	201.703	guitar
=69	=69	=69	=69	=69	=69	=69
4B	it,	.	.	.	.	.
4d	fair-	.	.	.	.	.
8B	-ly	.	.	.	.	.
8F#	but	.	.	.	.	.
=62	=62	=62	=62	=62	=62	=62
4F#	don't	1Em	E:min (E G B)	.	.	guitar
8A	take	.	.	.	.	.
8A	a	.	.	.	.	.
8B	slice	.	.	.	.	.
8B	of	.	.	.	.	.
4e	my	.	.	.	.	.
=70	=70	=70	=70	=70	=70	=70
12d	_	1Em	E:min (E G B)	.	.	guitar
6B	_	.	.	.	.	.
4A	pie.	.	.	.	.	.
1r	.	.	.	.	.	.
=64	=64	=64	=64	=64	=64	=64
.	.	1Em	E:min (E G B)	.	.	guitar
4r	.	.	.	.	.	.
=71	=71	=71	=71	=71	=71	=71
8f#	Mo-	.	.	.	.	.
[8f#	-ney,	.	.	.	.	.
=65	=65	=65	=65	=65	=65	=65
12f#]	_	1Bm	B:min (B D F#)	newline	209.073	guitar
6f#	_	.	.	.	.	.
4r	.	.	.	.	.	.
2r	.	.	.	.	.	.
=66	=66	=66	=66	=66	=66	=66
8r	.	1Bm	B:min (B D F#)	.	.	guitar
[8e	so	.	.	.	.	.
8e]	they	.	.	.	.	.
8d	_	.	.	.	.	.
=72	=72	=72	=72	=72	=72	=72
4.A	say,	.	.	.	.	.
8r	.	.	.	.	.	.
=67	=67	=67	=67	=67	=67	=67
1r	.	1Bm	B:min (B D F#)	.	.	guitar
=68	=68	=68	=68	=68	=68	=68
4d	is	1Bm	B:min (B D F#)	.	.	guitar
=73	=73	=73	=73	=73	=73	=73
4B	the	.	.	.	.	.
4d	root	.	.	.	.	.
4B	of	.	.	.	.	.
=69	=69	=69	=69	=69	=69	=69
4F#	all	1F#m	F#:min (F# A C#)	newline	216.508	guitar
4A	e-	.	.	.	.	.
4B	-vil	.	.	.	.	.
4e	to	.	.	.	.	.
=74	=74	=74	=74	=74	=74	=74
12d	_	1F#m	F#:min (F# A C#)	.	.	guitar
6B	_	.	.	.	.	.
4A	day.	.	.	.	.	.
4r	.	.	.	.	.	.
1r	.	.	.	.	.	.
=71	=71	=71	=71	=71	=71	=71
.	.	4Bm	B:1 (B)	.	.	guitar
.	.	4AM	A:1 (A)	.	.	guitar
.	.	4GM	G:1 (G)	.	.	guitar
=75	=75	=75	=75	=75	=75	=75
8f#	But	4F#m	F#:1 (F#)	.	.	guitar
8e	if	.	.	.	.	.
=72	=72	=72	=72	=72	=72	=72
4f#	you	4Em	E:1 (E)	.	.	guitar
8f#	ask	4DM	D:1 (D)	.	.	guitar
8c#	for	.	.	.	.	.
4F#	a	4C#m	C#:1 (C#)	.	.	guitar
4A	raise	4CM	C:1 (C)	.	.	guitar
=73	=73	=73	=73	=73	=73	=73
4c#	it's	1Bm	B:min (B D F#)	newline	223.897	guitar
4f#	no	.	.	.	.	.
=76	=76	=76	=76	=76	=76	=76
4f	sur-	.	.	.	.	.
8e	-prise	.	.	.	.	.
8B	that	.	.	.	.	.
=74	=74	=74	=74	=74	=74	=74
4E	they're	1Bm	B:min (B D F#)	.	.	guitar
4G	gi-	.	.	.	.	.
4A	-ving	.	.	.	.	.
4B	none	.	.	.	.	.
=75	=75	=75	=75	=75	=75	=75
8e	a-	1Bm	B:min (B D F#)	.	.	guitar
[8A	-way	.	.	.	.	.
=77	=77	=77	=77	=77	=77	=77
*M4/4	*	*	*	*	*	*
4A	...	.	.	.	.	.
4r	.	.	.	.	.	.
4r	.	.	.	.	.	.
=76	=76	=76	=76	=76	=76	=76
8d	a-	1Bm	B:min (B D F#)	.	.	guitar
[8A	-way	.	.	.	.	.
=78	=78	=78	=78	=78	=78	=78
4A]	...	.	.	.	.	.
4r	.	.	.	.	.	.
4r	.	.	.	.	.	.
=77	=77	=77	=77	=77	=77	=77
8d	a-	1Bm	B:min (B D F#)	newline	231.324	guitar
[8B	-way	.	.	.	.	.
=79	=79	=79	=79	=79	=79	=79
16B]	_	.	.	.	.	.
16d	_	.	.	.	.	.
[8B	_	.	.	.	.	.
4B]	...	.	.	.	.	.
4r	.	.	.	.	.	.
=78	=78	=78	=78	=78	=78	=78
8F#	a-	1Bm	B:min (B D F#)	.	.	guitar
[8e	-way	.	.	.	.	.
=80	=80	=80	=80	=80	=80	=80
8e]	_	.	.	.	.	.
8d	_	.	.	.	.	.
8B	_	.	.	.	.	.
8A	...	.	.	.	.	.
4r	.	.	.	.	.	.
=79	=79	=79	=79	=79	=79	=79
8d	a-	1Bm	B:min (B D F#)	.	.	guitar
[8B	-way	.	.	.	.	.
=81	=81	=81	=81	=81	=81	=81
16B]	_	.	.	.	.	.
16d	_	.	.	.	.	.
16B	_	.	.	.	.	.
16A	...	.	.	.	.	.
4r	.	.	.	.	.	.
4r	.	.	.	.	.	.
=80	=80	=80	=80	=80	=80	=80
8d	a-	1Bm	B:min (B D F#)	.	.	guitar
[8B	-way	.	.	.	.	.
=82	=82	=82	=82	=82	=82	=82
4B]	...	.	.	.	.	.
4r	.	.	.	.	.	.
4r	.	.	.	.	.	.
=81	=81	=81	=81	=81	=81	=81
8F#	a-	1Bm	B:min (B D F#)	newline	238.769	guitar
[8e	-way	.	.	.	.	.
=83	=83	=83	=83	=83	=83	=83
8e]	_	.	.	.	.	.
8d	_	.	.	.	.	.
8B	_	.	.	.	.	.
8A	...	.	.	.	.	.
4r	.	.	.	.	.	.
=82	=82	=82	=82	=82	=82	=82
8r	.	1Bm	B:min (B D F#)	.	.	guitar
8A	a-	.	.	.	.	.
=84	=84	=84	=84	=84	=84	=84
4A	-way	.	.	.	.	.
4B	...	.	.	.	.	.
4r	.	.	.	.	.	.
=83	=83	=83	=83	=83	=83	=83
8r	.	1Bm	B:min (B D F#)	.	.	guitar
[8a	oo-	.	.	.	.	.
=85	=85	=85	=85	=85	=85	=85
8a]	_	.	.	.	.	.
8f#	-o-	.	.	.	.	.
8e	-o-	.	.	.	.	.
8d	-o-	.	.	.	.	.
4B	-ooh...	.	.	.	.	.
=84	=84	=84	=84	=84	=84	=84
4r	.	1Bm	B:min (B D F#)	.	.	guitar
=86	=86	=86	=86	=86	=86	=86
1r	.	.	.	.	.	.
=85	=85	=85	=85	=85	=85	=85
.	.	1Em	E:min (E G B)	newline	246.165	guitar
=87	=87	=87	=87	=87	=87	=87
1r	.	.	.	.	.	.
=86	=86	=86	=86	=86	=86	=86
.	.	1Em	E:min (E G B)	.	.	guitar
=88	=88	=88	=88	=88	=88	=88
1r	.	.	.	.	.	.
=87	=87	=87	=87	=87	=87	=87
.	.	1Em	E:min (E G B)	.	.	guitar
=89	=89	=89	=89	=89	=89	=89
1r	.	.	.	.	.	.
=88	=88	=88	=88	=88	=88	=88
.	.	1Em	E:min (E G B)	.	.	guitar
=90	=90	=90	=90	=90	=90	=90
1r	.	.	.	.	.	.
=89	=89	=89	=89	=89	=89	=89
.	.	1Bm	B:min (B D F#)	newline	253.543	guitar
*-	*-	*	*
.	.	.	.	.
=90	=90	=90	=90	=90
1Bm	B:min (B D F#)	.	.	guitar
=91	=91	=91	=91	=91
1Bm	B:min (B D F#)	.	.	guitar
=92	=92	=92	=92	=92
1Bm	B:min (B D F#)	.	.	guitar
=93	=93	=93	=93	=93
1F#m	F#:min (F# A C#)	newline	260.931	guitar
=94	=94	=94	=94	=94
1F#m	F#:min (F# A C#)	.	.	guitar
=95	=95	=95	=95	=95
4Bm	B:1 (B)	.	.	guitar
4AM	A:1 (A)	.	.	guitar
4GM	G:1 (G)	.	.	guitar
4F#m	F#:1 (F#)	.	.	guitar
=96	=96	=96	=96	=96
4Em	E:1 (E)	.	.	guitar
4DM	D:1 (D)	.	.	guitar
4C#m	C#:1 (C#)	.	.	guitar
4CM	C:1 (C)	.	.	guitar
=97	=97	=97	=97	=97
1Bm	B:min (B D F#)	newline	268.366	guitar
=98	=98	=98	=98	=98
1Bm	B:min (B D F#)	.	.	guitar
=99	=99	=99	=99	=99
1Bm	B:min (B D F#)	.	.	guitar
=100	=100	=100	=100	=100
1Bm	B:min (B D F#)	.	.	guitar
=101	=101	=101	=101	=101
1Bm	B:min (B D F#)	newline	275.796	guitar
=102	=102	=102	=102	=102
1Bm	B:min (B D F#)	.	.	guitar
=103	=103	=103	=103	=103
1Bm	B:min (B D F#)	.	.	guitar
=104	=104	=104	=104	=104
1Bm	B:min (B D F#)	.	.	guitar
=105	=105	=105	=105	=105
1Bm	B:min (B D F#)	newline	283.064	guitar
=106	=106	=106	=106	=106
1Bm	B:min (B D F#)	.	.	guitar
=107	=107	=107	=107	=107
1Bm	B:min (B D F#)	.	.	guitar
=108	=108	=108	=108	=108
1Bm	B:min (B D F#)	.	.	guitar
=109	=109	=109	=109	=109
1Em	E:min (E G B)	newline	290.435	guitar
=110	=110	=110	=110	=110
1Em	E:min (E G B)	.	.	guitar
=111	=111	=111	=111	=111
1Em	E:min (E G B)	.	.	guitar
=112	=112	=112	=112	=112
1Em	E:min (E G B)	.	.	guitar
=113	=113	=113	=113	=113
1Bm	B:min (B D F#)	newline	297.84	guitar
=114	=114	=114	=114	=114
1Bm	B:min (B D F#)	.	.	guitar
=115	=115	=115	=115	=115
1Bm	B:min (B D F#)	.	.	guitar
=116	=116	=116	=116	=116
1Bm	B:min (B D F#)	.	.	guitar
=117	=117	=117	=117	=117
1F#m	F#:min (F# A C#)	newline	305.195	guitar
=118	=118	=118	=118	=118
1F#m	F#:min (F# A C#)	.	.	guitar
=119	=119	=119	=119	=119
4Bm	B:1 (B)	.	.	guitar
4AM	A:1 (A)	.	.	guitar
4GM	G:1 (G)	.	.	guitar
4F#m	F#:1 (F#)	.	.	guitar
=120	=120	=120	=120	=120
4Em	E:1 (E)	.	.	guitar
4DM	D:1 (D)	.	.	guitar
4C#m	C#:1 (C#)	.	.	guitar
4CM	C:1 (C)	.	.	guitar
=121	=121	=121	=121	=121
*M7/4	*M7/4	*M7/4	*M7/4	*M7/4
1Bm	B:min (B D F#)	newline	312.592	guitar
2.Bm	B:min (B D F#)	.	.	guitar
=122	=122	=122	=122	=122
1Bm	B:min (B D F#)	.	.	guitar
2.Bm	B:min (B D F#)	.	.	guitar
=123	=123	=123	=123	=123
*>B_verse	*>B_verse	*>B_verse	*>B_verse	*>B_verse
1Bm	B:min (B D F#)	newline	319.005	voice
2.Bm	B:min (B D F#)	.	.	voice
=124	=124	=124	=124	=124
1Bm	B:min (B D F#)	.	.	voice
2.Bm	B:min (B D F#)	.	.	voice
=125	=125	=125	=125	=125
1Bm	B:min (B D F#)	.	.	voice
2.Bm	B:min (B D F#)	.	.	voice
=126	=126	=126	=126	=126
1Bm	B:min (B D F#)	.	.	voice
2.Bm	B:min (B D F#)	.	.	voice
=127	=127	=127	=127	=127
1Bm	B:min (B D F#)	newline	331.921	voice
2.Bm	B:min (B D F#)	.	.	voice
=128	=128	=128	=128	=128
1Bm	B:min (B D F#)	.	.	voice
2.Bm	B:min (B D F#)	.	.	voice
=129	=129	=129	=129	=129
1Bm	B:min (B D F#)	.	.	voice
2.Bm	B:min (B D F#)	.	.	voice
=130	=130	=130	=130	=130
1Bm	B:min (B D F#)	.	.	voice
2.Bm	B:min (B D F#)	.	.	voice
=131	=131	=131	=131	=131
1F#m	F#:min (F# A C#)	newline	344.773	voice
2.F#m	F#:min (F# A C#)	.	.	voice
=132	=132	=132	=132	=132
4FM	F:1 (F)	.	.	voice
4Em	E:min (E G B)	.	.	voice
4Em	E:min (E G B)	.	.	voice
4Em	E:min (E G B)	.	.	voice
4Em	E:min (E G B)	.	.	voice
4Em	E:min (E G B)	.	.	voice
4Em	E:min (E G B)	.	.	voice
=133	=133	=133	=133	=133
*>D_outro	*>D_outro	*>D_outro	*>D_outro	*>D_outro
*M4/4	*M4/4	*M4/4	*M4/4	*M4/4
1Bm	B:min (B D F#)	newline	351.192	voice
=134	=134	=134	=134	=134
1Bm	B:min (B D F#)	.	.	voice
=135	=135	=135	=135	=135
1Bm	B:min (B D F#)	.	.	voice
=136	=136	=136	=136	=136
1Bm	B:min (B D F#)	.	.	voice
=137	=137	=137	=137	=137
1Bm	B:min (B D F#)	newline	358.612	fadeout, voice
=138	=138	=138	=138	=138
1Bm	B:min (B D F#)	.	.	fadeout, voice
=139	=139	=139	=139	=139
1Bm	B:min (B D F#)	.	.	fadeout, voice
=140	=140	=140	=140	=140
1Bm	B:min (B D F#)	.	.	fadeout, voice
1r;	r	.	402.04	r
1r;	r	.	405.943	r
*-	*-	*-	*-	*-
!!!BillboardChartDate: 1973/07/28
!!!BillboardPeak: 13
!!!BillboardWeeksOnChart: 15
!!!COC: Pink Floyd
!!!ENC: Nathaniel Condit-Schultz
!!!EST: Awating manual error checking and editing.
!!!OTL: Money
!!!RDF**chordsym: original McGill chord annotation + (implied pitch class set, with bass pitch in first position)
!!!RDF**harmony: **recip + pitch class of root + harmonic quality
!!!RDF**leadinstrument: original McGill primary instrumentation annotation
!!!RDF**phrase: newline = linebreak in original McGill transcription
!!!RDF**timestamp: McGill audio timestamp in seconds
!!!RDT: 2017/01/12/
!!!SampleActualRank: 13
!!!SampleID#: 0269
!!!SampleTargetRank: 12
